assets/img/braze_icons/check-heart.svg

<svg fill="none" height="24" viewBox="0 0 24 24" width="24" xmlns="http://www.w3.org/2000/svg"><path clip-rule="evenodd" d="m3.50509 3.54978c2.6873-2.29609 6.14776-1.87764 8.48771.16725 2.3372-2.04567 5.7608-2.43445 8.478-.17602 2.9736 2.47149 3.3307 6.68659 1.0409 9.63309-.7951 1.023-2.2744 2.5087-3.7573 3.9228-1.4995 1.43-3.0582 2.8388-4.0503 3.7242l-.022.0195c-.1625.1452-.3251.2903-.475.4039-.1685.1278-.3754.2593-.6393.3385-.3721.1116-.7772.1116-1.1493 0-.2639-.0792-.4708-.2107-.6393-.3385-.1499-.1136-.3124-.2587-.475-.4038l-.022-.0196c-.99213-.8854-2.55078-2.2942-4.05029-3.7242-1.48288-1.4141-2.96226-2.8998-3.75732-3.9228-2.298619-2.9579-1.876289-7.1407 1.0305-9.62432zm12.70201 5.65733c.3905-.39053.3905-1.02369 0-1.41422-.3905-.39052-1.0237-.39052-1.4142 0l-3.7929 3.79291-1.29289-1.2929c-.39053-.39053-1.02369-.39053-1.41422 0-.39052.3905-.39052 1.0237 0 1.4142l2.00001 2c.3905.3905 1.0237.3905 1.4142 0z" fill="#801ed7" fill-rule="evenodd"/></svg>

<svg width="24" height="24" viewBox="0 0 24 24" fill="none" xmlns="http://www.w3.org/2000/svg">
<path fill-rule="evenodd" clip-rule="evenodd" d="M3.50509 3.54978C6.19239 1.25369 9.65285 1.67214 11.9928 3.71703C14.33 1.67136 17.7536 1.28258 20.4708 3.54101C23.4444 6.0125 23.8015 10.2276 21.5117 13.1741C20.7166 14.1971 19.2373 15.6828 17.7544 17.0969C16.2549 18.5269 14.6962 19.9357 13.7041 20.8211L13.6821 20.8406C13.5196 20.9858 13.357 21.1309 13.2071 21.2445C13.0386 21.3723 12.8317 21.5038 12.5678 21.583C12.1957 21.6946 11.7906 21.6946 11.4185 21.583C11.1546 21.5038 10.9477 21.3723 10.7792 21.2445C10.6293 21.1309 10.4668 20.9858 10.3042 20.8407L10.2822 20.8211C9.29007 19.9357 7.73142 18.5269 6.23191 17.0969C4.74903 15.6828 3.26965 14.1971 2.47459 13.1741C0.175971 10.2162 0.598301 6.0334 3.50509 3.54978ZM16.2071 9.20711C16.5976 8.81658 16.5976 8.18342 16.2071 7.79289C15.8166 7.40237 15.1834 7.40237 14.7929 7.79289L11 11.5858L9.70711 10.2929C9.31658 9.90237 8.68342 9.90237 8.29289 10.2929C7.90237 10.6834 7.90237 11.3166 8.29289 11.7071L10.2929 13.7071C10.6834 14.0976 11.3166 14.0976 11.7071 13.7071L16.2071 9.20711Z" fill="#801ED7"/>
</svg>
